X:1
T:6 Lieder
T:Hell ins Fenster scheint die Sonne
T:Moritz Hauptmann
T:Klaus Groth
T:Hell ins Fenster scheint die Sonne
T:Op. 47,2
T:CPDL - Creative Commons Attribution Non Commercial 3.0
C:Moritz Hauptmann
Z:Klaus Groth
Z:CPDL - Creative Commons Attribution Non Commercial 3.0
%%score [ ( 1 2 ) ( 3 4 ) ]
L:1/8
Q:1/4=60
M:2/4
K:C
V:1 treble nm="Sopran\nAlt"
V:2 treble 
V:3 bass nm="Tenor\nBass"
V:4 bass 
V:1
"^Andante"!mf! Gc | B>F EA | AG DE | FA d>c | cB cG | EG DG | G2!f! ec | G>E!>(! FB,!>)! | C2 |] %9
w: 1.~Hell ins|Fens- ter scheint die|Son- ne, scheint ins|Herz mir Him- mels-|won- ne und was|kalt ist, dumpf und|weh, taut sie|weg wie Mai- en-|schnee.|
w: 2.~Win- ter|weint die hells- ten|Trä- nen und ich|füh- le Früh- lings-|seh- nen; Lust und|Freu- de, frisch wie|Tau lacht mir|zu des Him- mels|Blau.|
w: 3.~Noch ist's|Ziel für Glück und|Won- ne, komm her-|ein, o Früh- lings-|son- ne! Läch- le|mir die Se- lig-|keit tief ins|Herz, noch ist es|Zeit.|
V:2
 EC | F>D C_E | DD C^C | DE D>D | DD CD | EC CB, | C2 cG | E>C B,G, | G,2 |] %9
V:3
!mf! G,G, | G,>G, G,C | CB, G,G, | F,E, F,^F, | G,G, E, D,/G,/ | G,G, G,F, | E,2!f! E,G, | %7
 CG,!>(! G,>F,!>)! | E,2 |] %9
V:4
 C,E, | D,>B,, C,/E,/^F, | G,G, F,E, | D,C, B,,D, | G,G,, A,,B,, | C,E, G,G,, | C,2 C,E, | %7
 G,>G,, G,,G,, | C,2 |] %9

